X:316
%%etbk:tnset id:97,pos:3,rep:3x,ant:
%%etbk:tnset id:262,pos:3,rep:3x,ant:
%%etbk:tnset id:324,pos:3,rep:3x,ant:
%%etbk:tnset id:342,pos:2,rep:3x,ant:
%%etbk:wsite http://www.thesession.org/tunes/display/447
%%etbk:pldat 2016-06-21T16:04,2016-06-20T17:56,2016-06-18T16:21,2016-05-04T16:05,2016-03-11T17:02,2016-03-09T15:36,2016-03-07T18:47,2016-03-05T15:16,2016-03-05T13:24,2016-02-27T15:16,2016-02-16T17:17,2015-11-03T15:51,2015-10-29T18:45,2015-10-27T15:40,2015-10-24T13:51,2015-10-20T17:15,2015-10-06T15:08,2015-06-23T18:47,2015-06-18T19:17,2015-05-28T18:19,2015-03-12T18:38,2015-03-09T17:43,2015-02-16T19:24,2015-01-27T16:20,2014-11-05T18:16,2014-11-02T15:08,2014-10-29T16:15,2014-09-04T17:58,2014-09-03T18:08,2014-09-02T18:03,2014-09-01T17:58,2014-08-31T11:56,2014-08-28T18:02,2014-08-27T18:07,2014-08-26T15:23,2014-08-25T19:01,2014-08-24T10:45,2014-08-20T18:25,2014-08-19T18:16,2014-08-19T18:09,2014-08-14T19:38,2014-08-13T19:51,2014-08-12T19:23,2014-08-11T19:40,2014-08-10T11:38,2014-08-06T18:07,2014-08-04T17:56,2014-08-03T14:18,2014-07-26T14:41,2014-07-22T18:08,2014-07-20T11:28,2014-07-13T13:59,2014-07-05T13:47,2014-07-04T15:29,2014-07-03T09:49,2014-06-25T15:59,2014-06-13T15:19,2014-03-04T18:19,2014-03-02T16:17,2014-02-26T16:34,2013-10-30T15:30,2013-10-28T18:30,2013-10-26T16:49,2013-10-24T18:29,2013-10-18T15:16,2013-10-14T18:51,2013-10-09T16:28
T: Rose In The Heather, The
Z: Piano Box Version by Martin Fleischmann
H: Created 2013-02-19 /  Last Modified 2013-02-19
M: 6/8
L: 1/8
R: jig
K: Dmaj
|: "D"!3!FAF !2!EFE | !1!D!2!F!3!A !4!B!3!A!2!F | !1!A!2!B!3!d !4!ede | "A"!5!f!3!d!2!B !1!A!3!F!2!E |
"D"!3!F!2!F!3!F !2!EFE | !1!D!2!F!3!A !4!B!3!A!2!F | "A"!1!A!4!dB !1!A!3!F!2!E | "D"!3!F!1!D!2!C !1!D3:|
|: "D"!5!f!3!d!2!B !1!A!2!B!1!d | !3!f!5!aa !5!afd | "G"!4!g!3!g!4!g !3!fe!1!d | "A"!2!B!5!e!2!e !2!efg | 
"D"!3!f!1!d!2!B !1!A!2!B!1!d | !3!f!5!aa !5!afd | "G"!5!b!4!a!2!f "A"!4!gfe | "D"!3!f!1!d!2!c !1!d3:|


